X:164
T:Weaver's Triumph, The
T:Tha bhuaidh aig an fhigheadair
R:Jig
S:Simon Fraser Collection
N:No.203
O:Scottish
M:6/8
L:1/8
K:B_
d|:B2 F FDF|FDF FDF|~F2 G B2c|d2f edc|B2 G G^FG|G^FG G^FG|
~G2A B2c|d2f edc:|
b2 B f2e|d2B fdB|b2B f2e|d2B fdB|c'2c g2c|e2c gec|c'2 c g2c|e2c gec|
b2B f2e|d2B fdB| b2B f2e|d2B fdB|bag fed|fed cBA|BAG FED|d2f edc||

